icons/goblet-line.svg

<svg viewBox="0 0 24 24" fill="currentColor" xmlns="http://www.w3.org/2000/svg"><path d="M11 19V13.8889L3 5V3H21V5L13 13.8889V19H18V21H6V19H11ZM7.49073 7H16.5093L18.3093 5H5.69072L7.49073 7ZM9.29072 9L12 12.0103L14.7093 9H9.29072Z"/></svg>

<svg xmlns="http://www.w3.org/2000/svg" viewBox="0 0 24 24">
    <g>
        <path fill="none" d="M0 0h24v24H0z"/>
        <path d="M11 19v-5.111L3 5V3h18v2l-8 8.889V19h5v2H6v-2h5zM7.49 7h9.02l1.8-2H5.69l1.8 2zm1.8 2L12 12.01 14.71 9H9.29z"/>
    </g>
</svg>
